!!!COM: Haydn, Franz Joseph
!!!OTL: String Quartet in D Major
!!!OPS: Opus 71
!!!ONM: No. 2
!!!OMD: Adagio---Allegro
!!!OMV: 1
!!!SCT: H III:70
!!!SCA: Thematisch-bibliographisches Werkevererzeichnis (A. van Hoboken)
!!!YOR: Trautwein Edition
!!!ENC: Frances Bennion
!!!CDT: 1732/3/31/-1809/5/31/
!!!CNT: Oesterreich
!!!YEC: Copyright (c) 1994, 2000 Center for Computer Assisted Research in the Humanities
!!!YEM: Rights to all derivative editions reserved.
!!!YEM: Refer to licensing agreement for further details.
!!!YEN: United States of America
**kern	**kern	**kern	**kern
*k[f#c#]	*k[f#c#]	*k[f#c#]	*k[f#c#]
*D:	*D:	*D:	*D:
*clefF4	*clefC3	*clefF	*clefF
*M4/4	*M4/4	*M4/4	*M4/4
8DD	8D 8f# 8A	8f# 8A	8dd 8f#
8F#	4A	8d	8d
8E	.	8c#	8e
8D	8A	8d	8f#
2C#	2A	2e	2g
=2	=2	=2	=2
8AA	8c# 8e	8A 8g	8A 8ee 8g
8G	4A	8c#	8e
8F#	.	8d	8f#
8E	8G	8e 8c#	8g
8D	8F#	4.A 4.f#	4.a
8AA	4d	.	.
4FF#	.	.	.
.	[8D	[8a	8dd
=3	=3	=3	=3
8GG	4.D]	8a]	8cc#
8BB	.	4g	4b
4D	.	.	.
.	8F#	4f#	4a
4.r	8B	.	.
.	8c#	4e	4g
.	8d	.	.
8DD	[8A	16d	[8f#
.	.	16c#	.
=4	=4	=4	=4
2GG	16A]	2B	16f#]
.	16G	.	16e
.	16F#	.	16d#
.	16G	.	16e
.	16D#	.	16f#
.	16E	.	16g
.	16F#	.	16a
.	16G	.	16b
4.AA	4F#	4A	4d
.	8G	8c#	8e
8D	8r	8r	8r
=5	=5	=5	=5
2..DD	8r	4.r	2r
.	8f#	.	.
.	[2F#	.	.
.	.	8a	.
.	.	4.A	8r
.	.	.	8dd
.	8F#]	.	8d
8D	8d	8a	8ff#
=6	=6	=6	=6
2.G	8d	2b	4ff#
.	8d#	.	.
.	2e	.	8ee
.	.	.	8dd
.	.	4.a	4cc#
8F#	8d	.	8dd
8F#	8A	8a	8aa
=7	=7	=7	=7
4.E	4.G	4.cc#	4a 4aa
.	.	.	8gg
8D	8A	8dd	8ff#
4.E	4.G	4.cc#	4a 4aa
.	.	.	8gg
8D	8A	8dd	8ff#
=8	=8	=8	=8
8G	8A	8cc#	8ee
8F#	8a	8dd	8dd
8E	8a	8cc#	8gg
8D	8a	8dd	8ff#
4A	4a	4cc#	8ee
.	.	.	8aa
8r	4r	4r	8a
8D	.	.	8r
=9	=9	=9	=9
2..DD	8r	4.r	2r
.	8f#	.	.
.	[2F#	.	.
.	.	8a	.
.	.	4.A	8r
.	.	.	8dd
.	8F#]	.	8d
8D	8d	8a	8ff#
=10	=10	=10	=10
4.G	8d	4.b	4ff#
.	8d#	.	.
.	8e	.	8ee
8A	8f#	8cc	8dd#
4A	4f#	4cc	4dd#
8G	8g	8b	8ee
8r	8e	8g	8bb
=11	=11	=11	=11
1r	2d#	2f#	8ddd
.	.	.	8ccc
.	.	.	8bb
.	.	.	8aa
.	8e	8g	16aa
.	.	.	16gg
.	8c#	8e	16bb
.	.	.	16aa
.	8d	8f#	16gg
.	.	.	16ff#
.	8G	8b	16aa
.	.	.	16gg
=12	=12	=12	=12
2..r	2A	8a	16gg
.	.	.	16ff#
.	.	8g	16ff#
.	.	.	16ee
.	.	8f#	16ee
.	.	.	16dd
.	.	8e	16dd
.	.	.	16cc#
.	8d	8d	8dd
.	4r	4r	16c#
.	.	.	16d
.	.	.	16c#
.	.	.	16d
8D	8F#	[8A	16f#
.	.	.	16d
=13	=13	=13	=13
4E	4G	4A]	8c#
.	.	.	16f#
.	.	.	16g
8r	8r	8r	16f#
.	.	.	16g
8c#	8A	8e	16b
.	.	.	16g
4d	4d	4f#	8f#
.	.	.	16cc#
.	.	.	16dd
4r	8r	8r	16cc#
.	.	.	16dd
.	8f#	8a	16ff#
.	.	.	16dd
=14	=14	=14	=14
1r	4e	4g	8cc#
.	.	.	16ff#
.	.	.	16gg
.	8r	8r	16ff#
.	.	.	16gg
.	8c#	8e	16bb
.	.	.	16gg
.	4d	4f#	8ff#
.	.	.	16ccc#
.	.	.	16ddd
.	8r	8r	16ccc#
.	.	.	16ddd
.	8D	16g	16bb
.	.	16b	16gg
=15	=15	=15	=15
4.r	4d	16a	16ff#
.	.	16f#	16dd
.	.	16cc#	2..r
.	.	16dd	.
.	8r	16cc#	.
.	.	16dd	.
8DD	16G	16b	.
.	16B	16g	.
4D	16A	16f#	.
.	16F#	16d	.
.	16c#	8dd	.
.	16d	.	.
8r	16c#	8r	.
.	16d	.	.
16G	16B	8d	.
16B	16G	.	.
=16	=16	=16	=16
16A	16F#	8dd	8r
16F#	16D	.	.
16C#	16c#	16cc#	16ccc#
16D	16d	16dd	16ddd
16C#	16c#	16cc#	16ccc#
16D	16d	16dd	16ddd
16BB	16B	16b	16bb
16GG	16G	16g	16gg
[2DD	16F#	16f#	16ff#
.	16D	16d	16dd
.	16B	8dd	16gg
.	16d	.	16dd
.	16A	8r	16aa
.	16d	.	16dd
.	16G	8dd	16bb
.	16d	.	16dd
=17	=17	=17	=17
8DD]	16F#	8r	16aa
.	16d	.	16dd
8DD	16G	8dd	16bb
.	16d	.	16dd
8DD	16F#	8r	16aa
.	16d	.	16dd
8DD	16G	8dd	16bb
.	16d	.	16dd
8DD	8F#	8r	8aa
8F#	8A	8a	8dd
8E	8A	8cc#	8gg
8D	8A	8dd	8ff#
=18	=18	=18	=18
4A	4A	4cc#	8ee
.	.	.	16gg#
.	.	.	16aa
4r	4r	4r	16gg#
.	.	.	16aa
.	.	.	16bb
.	.	.	16aa
8c#	8a	8ee	16gg
.	.	.	16ee
8r	8r	8r	16gg
.	.	.	16ee
8d	8a	8dd	16ff#
.	.	.	16dd
8r	8r	8r	16ff#
.	.	.	16dd
=19	=19	=19	=19
4A	4a	8cc#	8ee
.	.	16gg#	4.r
.	.	16aa	.
4r	4r	16gg#	.
.	.	16aa	.
.	.	16bb	.
.	.	16aa	.
8AA	16A	16gg	8ee 8ccc#
.	16e	16ee	.
8r	16A	16gg	8r
.	16e	16ee	.
8AA	16A	16ff#	8ddd 8ff#
.	16f#	16dd	.
8r	16A	16ff#	8r
.	16f#	16dd	.
=20	=20	=20	=20
8AA	8a	8a 8ee	8ee 8ccc#
8AA	16d	8ff# 8a	8ff# 8ddd
.	16f#	.	.
8AA	8a	8a 8ee	8ccc# 8ee
8AA	16d	8ff# 8a	8ff# 8ddd
.	16f#	.	.
4AA	4a	4ee 4a	4ccc# 4ee
4r	4r	4r	8r
.	.	.	8aa
=21	=21	=21	=21
2r	4.r	8r	2..a
.	.	8ff#	.
.	.	[2f#	.
.	8cc#	.	.
8r	4.c#	.	.
8F#	.	.	.
8FF#	.	8f#]	.
8EE#	8g#	8b	8ddd
=22	=22	=22	=22
8E#	2..E#	1g# 1b	8dd
8GG#	.	.	8bb
8G#	.	.	8b
8BB	.	.	8gg#
8B	.	.	8g#
8C#	.	.	8ee#
8c#	.	.	8e#
8E#	8c#	.	8b
=23	=23	=23	=23
8F#	2F#	4.a 4.f#	8a
8AA	.	.	8ccc#
8A	.	.	8cc#
8FF#	.	8cc# 8f#	8aa
8F#	4.A	2cc# 2f#	8a
8AA	.	.	8ff#
8A	.	.	8f#
8A#	8A#	.	8ee
=24	=24	=24	=24
4B	4B	4b 4f#	16dd#
.	.	.	16ee
.	.	.	16ff#
.	.	.	16gg#
8r	8r	8r	16aa
.	.	.	16gg#
8c	8e	8A	16ff#
.	.	.	16ee
4B	4f#	4a	16dd#
.	.	.	16ee
.	.	.	16ff#
.	.	.	16gg#
8r	8r	8r	16aa
.	.	.	16gg#
8c	8e	8A	16ff#
.	.	.	16ee
=25	=25	=25	=25
1B	1f#	1a	16dd#
.	.	.	16ee
.	.	.	16ff#
.	.	.	16gg#
.	.	.	16aa
.	.	.	16gg#
.	.	.	16ff#
.	.	.	16ee
.	.	.	16dd#
.	.	.	16ee
.	.	.	16ff#
.	.	.	16ee
.	.	.	16dd#
.	.	.	16cc#
.	.	.	16b
.	.	.	16a
=26	=26	=26	=26
4E	4e	4g#	16g#
.	.	.	16gg#
.	.	.	16bb
.	.	.	16aa
8r	8r	8r	16gg#
.	.	.	16ff#
8A	8c	8f#	16ee
.	.	.	16dd#
4G#	4B	4e	16ee
.	.	.	16gg#
.	.	.	16bb
.	.	.	16aa
8r	8r	8r	16gg#
.	.	.	16ff#
8A	8c	8f#	16ee
.	.	.	16dd#
=27	=27	=27	=27
1G#	1B	2e	16ee
.	.	.	16bb
.	.	.	16ddd
.	.	.	16ccc#
.	.	.	16bb
.	.	.	16aa
.	.	.	16gg#
.	.	.	16ff#
.	.	2dd 2e	16ee
.	.	.	16gg#
.	.	.	16bb
.	.	.	16aa
.	.	.	16gg#
.	.	.	16ff#
.	.	.	16ee
.	.	.	16dd
=28	=28	=28	=28
4A	4A	4cc# 4e	8cc#
.	.	.	8ff#
8r	8r	8r	4.ee
8c#	8e	8a	.
4B	4.d	4.g#	.
.	.	.	8ff#
8r	.	.	[4ee
8c#	8e	8a	.
=29	=29	=29	=29
[4B	[4d	[4g#	16ee]
.	.	.	16ff#
.	.	.	16ee
.	.	.	16ff#
16B]	16d]	16g#]	[4ee
16c#	16e	16a	.
16B	16d	16g#	.
16c#	16e	16a	.
[4B	[4d	[4g#	16ee]
.	.	.	16ff#
.	.	.	16ee
.	.	.	16ff#
16B]	16d]	16g#]	[4ee
16c#	16e	16a	.
16B	16d	16g#	.
16c#	16e	16a	.
=30	=30	=30	=30
8B	8d	8g#	16ee]
.	.	.	16ff#
8c#	8e	8a	16ee
.	.	.	16ff#
8B	8d	8g#	16ee
.	.	.	16ff#
8c#	8e	8a	16ee
.	.	.	16ff#
4.B	4.d	4.g#	16ee
.	.	.	16ff#
.	.	.	16gg#
.	.	.	16aa
.	.	.	16bb
.	.	.	16ccc#
8G#	16B	8bb	16ddd
.	16e	.	16bb
=31	=31	=31	=31
4A	4e	8aa	16ccc#
.	.	.	16ddd
.	.	8a	16eee
.	.	.	16ccc#
2.r	2r	8ff#	16aa
.	.	.	16bb
.	.	8f#	16ccc#
.	.	.	16aa
.	.	8dd	16ff#
.	.	.	16gg#
.	.	8d	16aa
.	.	.	16ff#
.	8g#	4r	16dd
.	.	.	16ee
.	8G#	.	16ff#
.	.	.	16dd
=32	=32	=32	=32
2.r	8a	1r	16cc#
.	.	.	16dd
.	8A	.	16ee
.	.	.	16cc#
.	8f#	.	16a
.	.	.	16b
.	8F#	.	16cc#
.	.	.	16a
.	8d	.	16f#
.	.	.	16g#
.	8D	.	16a
.	.	.	16f#
8G#	4r	.	16d
.	.	.	16f#
8GG#	.	.	16e
.	.	.	16d
=33	=33	=33	=33
8AA	2r	4r	16c#
.	.	.	16d
8A	.	.	16c#
.	.	.	16B
2.r	.	16r	16A
.	.	16d	16f#
.	.	16c#	16e
.	.	16B	16d
.	16r	16A	16c#
.	16c#	16e	16a
.	16B	16d	16g#
.	16A	16c#	16f#
.	16G#	16B	16e
.	16f#	16a	16dd
.	16e	16g#	16cc#
.	16d	16f#	16b
=34	=34	=34	=34
2r	16c#	16e	16a
.	16e	16dd	16ff#
.	16f#	16cc#	16ee
.	16g#	16b	16dd
.	16a	16a	16cc#
.	16e	16dd	16ff#
.	16f#	16cc#	16ee
.	16g#	16b	16dd
16r	16a	16a	16cc#
16A	16cc#	16ee	16aa
16B	16b	16dd	16gg#
16c#	16a	16cc#	16ff#
16d	16g#	16b	16ee
16A	16cc#	16ee	16aa
16B	16b	16dd	16gg#
16c#	16a	16cc#	16ff#
=35	=35	=35	=35
2d	2g#	2b	1ee
2c#	2g	2a#	.
=36	=36	=36	=36
8.d	8.f#	8.b	8.dd
16c#	16e	16cc#	16ee
8B	8d	8dd	8ff#
8d	8f#	8b	8dd
8e	8e	8a	8cc#
8r	8r	8r	8r
8E	8d	8g#	8b
8r	8r	8r	8r
=37	=37	=37	=37
1d	2g#	1b	1ff
.	[2g	.	.
=38	=38	=38	=38
4c	4g]	4cc	4ee
4d	4f	4b	4dd
4d#	4f#	4a	4cc
4e	4g#	4g#	4b
=39	=39	=39	=39
8A	8e	8a	8cc#
8A	8e	8a	8cc#
8D	8f#	8b	8dd
8D	8f#	8b	16cc#
.	.	.	16dd
8E	8e	8g#	8b
8E	8e	8g#	8b
4r	4r	4r	4ee
=40	=40	=40	=40
8A	8e	8a	8cc#
8A	8e	8a	8cc#
8D	8f#	8b	8dd
8D	8f#	8b	16cc#
.	.	.	16dd
8E	8e	8g#	8b
8E	8e	8g#	8b
4r	4r	4r	4e
=41	=41	=41	=41
8c#	8e	8A	8a
8c#	8e	8A	8a
8C#	8A	8e	8aa
8C#	8A	8e	16gg#
.	.	.	16aa
8D	8A	8f#	8ff#
8D	8A	8f#	8ff#
8r	8r	8r	4ddd
8BB	8e	8g#	.
=42	=42	=42	=42
8AA	8e	16a	16ccc#
.	.	16cc#	16eee
8AA	8e	16ee	16ccc#
.	.	16cc#	16aa
8E	8d	16dd	16bb
.	.	16b	16ddd
8E	8d	16g#	16bb
.	.	16b	16gg#
4AA	16c#	16a	4aa
.	16A	16c#	.
.	16B	16d	.
.	16c#	16e	.
4r	16d	16f#	4r
.	16e	16g#	.
.	16f#	16a	.
.	16g#	16b	.
=43	=43	=43	=43
8A	8a	8cc#	8r
8r	8a	8cc#	8eee
8D	8r	8dd	8r
8r	16d	16cc#	8fff#
.	16b	16dd	.
4E	8g#	8b	8r
.	8g#	8b	16ddd
.	.	.	16bb
4r	8r	4ee	8gg#
.	8ee	.	8ee
=44	=44	=44	=44
8A	8a	8cc#	8r
8r	8a	8cc#	8eee
8D	8r	8dd	8r
8r	16d	16cc#	8fff#
.	16b	16dd	.
4E	8g#	8b	8r
.	8g#	8b	16ddd
.	.	.	16bb
4r	8r	4e	8gg#
.	8ee	.	8ee
=45	=45	=45	=45
8c#	8a	8r	8r
8r	8a	8a	16eee
.	.	.	16ccc#
8C#	8r	8r	8aa
8r	8a	8ee	16gg#
.	.	.	16aa
8D	8r	8r	8ff#
8r	8a	8ff#	8ff#
8BB	8r	8r	4ddd
8r	8e	8gg#	.
=46	=46	=46	=46
8AA	16ee	4aa	16ccc#
.	16cc#	.	16eee
8r	16ee	.	16ccc#
.	16cc#	.	16aa
8E	16dd	8r	16bb
.	16b	.	16ddd
8r	16g#	8ee	16bb
.	16b	.	16gg#
4AA	4a	16aa	[2aa
.	.	16ccc#	.
.	.	16aa	.
.	.	16ee	.
4r	4r	16ff#	.
.	.	16aa	.
.	.	16ff#	.
.	.	16dd	.
=47	=47	=47	=47
1r	2r	16ee	1aa_
.	.	16aa	.
.	.	16ee	.
.	.	16cc#	.
.	.	16dd	.
.	.	16ff#	.
.	.	16dd	.
.	.	16b	.
.	16a	16cc#	.
.	16cc#	16ee	.
.	16a	16cc#	.
.	16e	16a	.
.	16f#	16dd	.
.	16a	16ff#	.
.	16f#	16dd	.
.	16d	16b	.
=48	=48	=48	=48
2r	16e	16cc#	1aa]
.	16a	16ee	.
.	16e	16cc#	.
.	16c#	16a	.
.	16d	16b	.
.	16f#	16dd	.
.	16d	16b	.
.	16B	16g#	.
16A	16c#	2a	.
16c#	16e	.	.
16A	16c#	.	.
16E	16A	.	.
16F#	16d	.	.
16A	16f#	.	.
16F#	16d	.	.
16D	16B	.	.
=49	=49	=49	=49
16C#	8A	8ccc#	8eee
16E	.	.	.
16A	8r	8r	8r
16c#	.	.	.
16D	8f#	8bb	8ddd
16F#	.	.	.
16B	8r	8r	8r
16d	.	.	.
8E	8e	8aa	8ccc#
8r	8r	8r	8r
8E	8d	8gg#	8bb
8r	8r	8r	16r
.	.	.	16aa
=50	=50	=50	=50
8r	8r	8r	4.a
8C#	8E	8a	.
4c#	4e	4A	.
.	.	.	8aa
8r	8r	8r	4.a
8D	8F#	8a	.
4d	4f#	4A	.
.	.	.	8aa
=51	=51	=51	=51
8r	8r	8r	4.a
8E	8G	8a	.
2.e	2.g	2.A	.
.	.	.	8aa
.	.	.	8a
.	.	.	8aa
.	.	.	8a
.	.	.	8aa
=52	=52	=52	=52
1r	1r	1r	8a
.	.	.	8gg
.	.	.	8g
.	.	.	8ff#
.	.	.	8f#
.	.	.	8ee
.	.	.	8e
.	.	.	8dd
=53	=53	=53	=53
2..D	4F#	4A	8d
.	.	.	8cc
.	4G	4B	8d
.	.	.	8b
.	4A	4c	8d
.	.	.	8a
.	4B	4B	8g
8d	.	.	8r
=54	=54	=54	=54
8D	2.D	4f#	4a
8c	.	.	.
8D	.	4g	4b
8B	.	.	.
8D	.	8a	4cc
8A	.	8f#	.
8G	4G	8g	4b
8r	.	8b	.
=55	=55	=55	=55
4D#	4f#	8B	2..r
.	.	8a	.
4E	4g	8B	.
.	.	8g	.
4A	4d#	8B	.
.	.	8f#	.
4G	4e	8e	.
.	.	8r	8b
=56	=56	=56	=56
2.BB	4f#	4a	8dd#
.	.	.	8b
.	4e	4g	8ee
.	.	.	8b
.	4f#	4dd#	8aa
.	.	.	8b
8E	8e	8ee	8gg
8D#	8B	8ff#	8aa
=57	=57	=57	=57
2.E	4e	8ee	8g
.	.	8ee	8gg
.	2.r	8dd	8f#
.	.	8dd	8ff#
.	.	8cc#	8e
.	.	8cc#	8ee
4E#	.	8b	8d
.	.	8b	8dd
=58	=58	=58	=58
8F#	2.r	4a#	4cc#
8F#	.	.	.
8F#	.	2ff#	4a#
16E	.	.	.
16F#	.	.	.
8G	.	.	4b
8g	.	.	.
8g	4b	[4ee	4bb
16f#	.	.	.
16g	.	.	.
=59	=59	=59	=59
2f#	4cc	4ee]	8aa
.	.	.	8aa
.	8b	4dd#	8aa
.	8b	.	16gg#
.	.	.	16aa
2e	4b	8dd	2gg#
.	.	8dd	.
.	8b	8dd	.
.	16a	16cc#	.
.	16b	16dd	.
=60	=60	=60	=60
2A	8ee	2.cc#	8gg
.	8e	.	8gg
.	8e	.	8gg
.	16d	.	16ff#
.	16e	.	16gg
4d	8d	.	2ff#
.	8d	.	.
4r	8g	[4b	.
.	16f#	.	.
.	16g	.	.
=61	=61	=61	=61
1r	8c#	4b]	2ee
.	8c#	.	.
.	8f#	4a#	.
.	16e	.	.
.	16f#	.	.
.	4B	8b	8dd
.	.	8b	8dd
.	4E#	8b	8dd
.	.	16a#	16cc#
.	.	16b	16b
=62	=62	=62	=62
4F#	4F#	4a#	8a#
.	.	.	16e#
.	.	.	16f#
4r	4r	4r	16e#
.	.	.	16f#
.	.	.	16e#
.	.	.	16f#
4E	4c#	4f#	8a#
.	.	.	16g
.	.	.	16f#
4r	4r	4r	16g
.	.	.	16f#
.	.	.	16g
.	.	.	16f#
=63	=63	=63	=63
4D	4B	4f#	8b
.	.	.	16e#
.	.	.	16f#
4r	4r	4r	16e#
.	.	.	16f#
.	.	.	16e#
.	.	.	16f#
4AA#	4e	4f#	8cc#
.	.	.	16g
.	.	.	16f#
4r	4r	4r	16g
.	.	.	16f#
.	.	.	16g
.	.	.	16f#
=64	=64	=64	=64
4BB	4d	4f#	8dd
.	.	.	16a#
.	.	.	16b
2.r	8r	8r	16a#
.	.	.	16b
.	8d	8f#	16dd
.	.	.	16b
.	4c#	4e	8a#
.	.	.	16dd#
.	.	.	16ee
.	8r	8r	16dd#
.	.	.	16ee
.	8a#	8cc#	16gg
.	.	.	16ee
=65	=65	=65	=65
8r	8b	8dd	8dd
16A#	16a#	16a#	16aa#
16B	16b	16b	16bb
16A#	16a#	16a#	16aa#
16B	16b	16b	16bb
16d	16dd	16dd	16ddd
16B	16b	16b	16bb
8G	8g	8g	8gg
16B	16b	16b	16bb
16G	16g	16g	16gg
8E	8e	8e	8ee
16G	16g	16g	16gg
16E	16e	16e	16ee
=66	=66	=66	=66
8C#	8c#	8c#	8cc#
8r	8r	8r	8r
8E	8c#	8ee	8gg
8r	8r	8r	8r
8F#	8f#	8dd	8ff#
8r	8r	8r	8r
8FF#	8e	8cc#	8a#
8r	8r	8r	8r
=67	=67	=67	=67
8GG	8d	8b	8b
16A#	16a#	16a#	16a#
16B	16b	16b	16b
16A#	16a#	16a#	16a#
16B	16b	16b	16b
16d	16dd	16dd	16dd
16B	16b	16b	16b
8G	8g	8g	8g
16B	16b	16b	16b
16G	16g	16g	16g
8E	8e	8e	8e
16G	16g	16g	16g
16E	16e	16e	16e
=68	=68	=68	=68
8C#	8c#	8c#	8c#
16AA	16A	16A	16A
16BB	16B	16B	16B
16C#	16c#	16c#	16c#
16D	16d	16d	16d
16E	16e	16e	16e
16F#	16d	16f#	16f#
8AA 8G	8c#	8e	8g
4.r	16c#	16g	16a
.	16d	16f#	16b
.	16e	16e	16cc#
.	16f#	16d	16dd
.	16e	16c#	16ee
.	16d	16B	16ff#
=69	=69	=69	=69
8AA	8c#	8A	8gg
16AA	16C#	16g	16b
16BB	16D	16f#	16a
16C#	16E	16e	16g
16D	16F#	16d	16f#
16E	16G	16c#	16e
16F#	16F#	16B	16d
8G	8G	8A	8c#
16g	16e	16a	16cc#
16f#	16f#	16b	16dd
16e	16g	16cc#	16ee
16d	16f#	16dd	16ff#
16c#	16e	16ee	16gg
16B	16d	16ff#	16aa
=70	=70	=70	=70
4A	4c#	4gg	8bb
.	.	.	8b
2r	2.r	2.r	8gg
.	.	.	8e
.	.	.	8ee
.	.	.	8c#
8r	.	.	8cc#
8D	.	.	8G
=71	=71	=71	=71
2..DD	8r	4.r	2r
.	8f#	.	.
.	[2F#	.	.
.	.	8a	.
.	.	4.A	8r
.	.	.	8dd
.	8F#]	.	8d
8D	8d	8a	8ff#
=72	=72	=72	=72
2.G	8d	2b	4ff#
.	8d#	.	.
.	2e	.	8ee
.	.	.	8dd
.	.	4.a	4cc#
8F#	8d	.	8dd
8F#	8A	8a	8aa
=73	=73	=73	=73
4.E	4.G	4.cc#	4aa 4a
.	.	.	8gg
8D	8A	8dd	8ff#
4.E	4.G	4.cc#	4aa 4a
.	.	.	8gg
8D	8A	8dd	8ff#
=74	=74	=74	=74
8G	8A	8cc#	8ee
8F#	8a	8dd	8dd
8E	8a	8cc#	8gg
8D	8a	8dd	8ff#
4A	4a	4cc#	8ee
.	.	.	8aa
8r	4r	4r	8a
8DD	.	.	8r
=75	=75	=75	=75
2..D	8r	4.r	2r
.	8F	.	.
.	2.f	.	.
.	.	8B-	.
.	.	2b-	8r
.	.	.	8d
.	.	.	4dd
8EE	.	.	.
=76	=76	=76	=76
2..E	8r	4.r	2r
.	8c#	.	.
.	2.cc#	.	.
.	.	8g	.
.	.	2gg	8r
.	.	.	8b-
.	.	.	4bb-
8FF#	.	.	.
=77	=77	=77	=77
2..F#	8r	4.r	2r
.	8e-	.	.
.	2.ee-	.	.
.	.	8a	.
.	.	2aa	8r
.	.	.	8cc
.	.	.	4ccc
8GG	.	.	.
=78	=78	=78	=78
[1G	8r	4.r	2r
.	8B-	.	.
.	[2.b-	.	.
.	.	8d	.
.	.	[2dd	8r
.	.	.	8g
.	.	.	8gg
.	.	.	8b-
=79	=79	=79	=79
8G]	8b-]	8dd]	4.bb-
8GG	8b-	4gg	.
[2G	[2B-	.	.
.	.	8ff	8aa
.	.	8ee	8gg
.	.	8dd	8ff
8G]	8B-]	8cc#	8ee
8G#	8B	8dd	8dd
=80	=80	=80	=80
4.A	4.c#	8a	8cc#
.	.	8b	8dd
.	.	4.cc#	4.ee
8B	8d	.	.
4.c#	4.e	.	.
.	.	8dd	8ff#
.	.	[4ee	[4gg
8d	8f#	.	.
=81	=81	=81	=81
[2e	[2g	8ee]	8gg]
.	.	8dd	8ff#
.	.	8cc#	8ee
.	.	8b	8dd
8e]	8g]	8a	8cc#
8A	8c#	8gg	8bb
8B	8d	8ff#	8aa
8c#	8e	8ee	8gg
=82	=82	=82	=82
4d	4f#	4dd	8ff#
.	.	.	8bb
8r	8r	8r	4.aa
8f#	8a	8dd	.
4.e	4.g	4.cc#	.
.	.	.	8bb
.	.	.	[4aa
8f#	8a	8dd	.
=83	=83	=83	=83
[4e	[4g	[4cc#	16aa]
.	.	.	16bb
.	.	.	16aa
.	.	.	16bb
16e]	16g]	16cc#]	[4aa
16f#	16a	16dd	.
16e	16g	16cc#	.
16f#	16a	16dd	.
[4e	[4g	[4cc#	16aa]
.	.	.	16bb
.	.	.	16aa
.	.	.	16bb
16e]	16g]	16cc#]	[4aa
16f#	16a	16dd	.
16e	16g	16cc#	.
16f#	16a	16dd	.
=84	=84	=84	=84
8e	8g	8cc#	16aa]
.	.	.	16bb
8f#	8a	8dd	16aa
.	.	.	16bb
8e	8g	8cc#	16aa
.	.	.	16bb
8f#	8a	8dd	16aa
.	.	.	16bb
4.e	4.g	4.cc#	16aa
.	.	.	16bb
.	.	.	16ccc#
.	.	.	16ddd
.	.	.	16eee
.	.	.	16fff#
8c#	16e	8eee	16ggg
.	16a	.	16eee
=85	=85	=85	=85
4d	4a	8ddd	16fff#
.	.	.	16ggg
.	.	8dd	16aaa
.	.	.	16fff#
2.r	2r	8bb	16ddd
.	.	.	16eee
.	.	8b	16fff#
.	.	.	16ddd
.	.	8gg	16bb
.	.	.	16ccc#
.	.	8g	16ddd
.	.	.	16bb
.	8cc#	4r	16gg
.	.	.	16aa
.	8c#	.	16bb
.	.	.	16gg
=86	=86	=86	=86
2.r	8dd	1r	16ff#
.	.	.	16gg
.	8d	.	16aa
.	.	.	16ff#
.	8b	.	16dd
.	.	.	16ee
.	8B	.	16ff#
.	.	.	16dd
.	8g	.	16b
.	.	.	16cc#
.	8G	.	16dd
.	.	.	16b
8c#	4r	.	16g
.	.	.	16b
8C#	.	.	16a
.	.	.	16g
=87	=87	=87	=87
8D	2r	4r	16f#
.	.	.	16g
8d	.	.	16f#
.	.	.	16e
2.r	.	16r	16d
.	.	16g	16b
.	.	16f#	16a
.	.	16e	16g
.	16r	16d	16f#
.	16f#	16a	16dd
.	16e	16g	16cc#
.	16d	16f#	16b
.	16c#	16e	16a
.	16b	16dd	16gg
.	16a	16cc#	16ff#
.	16g	16b	16ee
=88	=88	=88	=88
2r	16f#	16a	16dd
.	16a	16gg	16bb
.	16b	16ff#	16aa
.	16cc#	16ee	16gg
.	16dd	16dd	16ff#
.	16a	16gg	16bb
.	16b	16ff#	16aa
.	16cc#	16ee	16gg
16r	16dd	16dd	16ff#
16d	16ff#	16aa	16ddd
16e	16ee	16gg	16ccc#
16f#	16dd	16ff#	16bb
16g	16cc#	16ee	16aa
16d	16ff#	16aa	16ddd
16e	16ee	16gg	16ccc#
16f#	16dd	16ff#	16bb
=89	=89	=89	=89
2g	2cc#	2ee	1aa
2f#	2cc	2dd#	.
=90	=90	=90	=90
8.g	8.b	8.ee	8.gg
16f#	16a	16ff#	16aa
8e	8g	8gg	8bb
8g	8b	8ee	8gg
8a	8a	8dd	8ff#
8r	8r	8r	8r
8A	8g	8cc#	8ee
8r	8r	8r	8r
=91	=91	=91	=91
1g	2cc#	1ee	1bb-
.	[2cc	.	.
=92	=92	=92	=92
4f	4cc]	4ff	4aa
4g	4b-	4ee	4gg
4g#	4b	4dd	4ff
4a	4cc#	4cc#	4ee
=93	=93	=93	=93
2d	8dd	8ff#	4dd
.	8a	8ff#	.
.	2b	8gg	2.r
.	.	16ff#	.
.	.	16gg	.
2c#	.	8ee	.
.	.	8ee	.
.	[4a	4aa	.
=94	=94	=94	=94
2B	4a]	8dd	2r
.	.	8dd	.
.	4g#	8ee	.
.	.	16dd	.
.	.	16ee	.
[2AA	8a	8cc#	8aa
.	8r	8r	8aa
.	8d#	8f#	8bb
.	8d#	8f#	16aa
.	.	.	16bb
=95	=95	=95	=95
1AA_	8e	8g	8gg
.	16d#	16f#	8gg
.	16e	16g	.
.	8c#	8e	4eee
.	8c#	8e	.
.	4d	4f#	8ff#
.	.	.	8ff#
.	8B	8d	8gg
.	8B	8d	16ff#
.	.	.	16gg
=96	=96	=96	=96
1AA_	8c#	8e	8ee
.	16B	16d	8ee
.	16c#	16e	.
.	8A	8c#	4ccc#
.	8A	8c#	.
.	2B	4.d	8dd
.	.	.	8dd
.	.	.	8ee
.	.	8g#	16dd
.	.	.	16ee
=97	=97	=97	=97
1AA]	1c# 1e	2a	16cc#
.	.	.	16dd
.	.	.	16ee
.	.	.	16ff#
.	.	.	16gg
.	.	.	16ff#
.	.	.	16ee
.	.	.	16dd
.	.	2g	16cc#
.	.	.	16dd
.	.	.	16ee
.	.	.	16dd
.	.	.	16cc#
.	.	.	16b
.	.	.	16a
.	.	.	16g
=98	=98	=98	=98
1D	2f# 2A	2f#	16f#
.	.	.	16d
.	.	.	16f#
.	.	.	16a
.	.	.	16cc
.	.	.	16dd
.	.	.	16ff#
.	.	.	16aa
.	2F# 2A	2a	16ccc
.	.	.	16aa
.	.	.	16ccc
.	.	.	16aa
.	.	.	16gg
.	.	.	16ff#
.	.	.	16aa
.	.	.	16a
=99	=99	=99	=99
2D#	2F# 2A	8b	16b
.	.	.	16bb
.	.	8a	16cc
.	.	.	16ccc
.	.	8b	16b
.	.	.	16bb
.	.	8cc	16a
.	.	.	16aa
2E	4.G	8b	16g
.	.	.	16gg
.	.	8a	16f#
.	.	.	16ff#
.	.	8g	16e
.	.	.	16ee
.	8G#	8f#	16d
.	.	.	16dd
=100	=100	=100	=100
1AA	8A	8e	16c#
.	.	.	16cc#
.	8G	8f#	16B
.	.	.	16b
.	8F#	8g	16A
.	.	.	16a
.	8E#	8g#	16G#
.	.	.	16g#
.	8F#	8a	16A
.	.	.	16a
.	8E#	8g#	16G#
.	.	.	16g#
.	8F#	8a	16A
.	.	.	16a
.	8E	8g	16G
.	.	.	16g
=101	=101	=101	=101
8r	8D	8f#	16f#
.	.	.	16a
8D	8f#	8dd	16dd
.	.	.	16a
8r	8r	8r	16g
.	.	.	16cc#
8E	8g	8cc#	16ee
.	.	.	16cc#
8r	8r	8r	16a
.	.	.	16dd
8F#	8a	8dd	16ff#
.	.	.	16dd
8r	8r	8r	16b
.	.	.	16ee
8G	8b	8ee	16gg
.	.	.	16ee
=102	=102	=102	=102
4A	4a	4dd	16ff#
.	.	.	16dd
.	.	.	16ee
.	.	.	16ff#
2.r	2.r	2.r	16gg
.	.	.	16aa
.	.	.	16bb
.	.	.	16ccc#
.	.	.	16ddd
.	.	.	16aa
.	.	.	16fff#
.	.	.	16ddd
.	.	.	8aaa
.	.	.	16r
.	.	.	16dd
=103	=103	=103	=103
1AA	16g	1cc#	1ee
.	16f#	.	.
.	16g	.	.
.	16f#	.	.
.	16g	.	.
.	16a	.	.
.	16b	.	.
.	16a	.	.
.	16g	.	.
.	16f#	.	.
.	16e	.	.
.	16d	.	.
.	16c#	.	.
.	16B	.	.
.	16A	.	.
.	16G	.	.
=104	=104	=104	=104
8d	8F#	8dd	8ff#
8d	8a	8dd	8ff#
8G	8b	8ee	8gg
8G	8b	8ee	16ff#
.	.	.	16gg
8A	8a	8cc#	8ee
8A	8a	8cc#	8ee
4r	4r	4r	4aa
=105	=105	=105	=105
8d	8a	8dd	8ff#
8d	8a	8dd	8ff#
8G	8b	8ee	8gg
8G	8b	8ee	16ff#
.	.	.	16gg
8A	8a	8cc#	8ee
8A	8a	8cc#	8ee
4r	4r	4r	4a
=106	=106	=106	=106
8FF#	8a	8d	8dd
8FF#	8a	8d	8dd
8F#	8d	8a	8ddd
8F#	8d	8a	16ccc#
.	.	.	16ddd
8G	8d	8b	8bb
8G	8d	8b	8bb
8r	8r	8r	4ggg
8E	8a	8cc#	.
=107	=107	=107	=107
8D	8a	16dd	16fff#
.	.	16ff#	16aaa
8D	8a	16aa	16fff#
.	.	16ff#	16ddd
8A	8g	16gg	16eee
.	.	16ee	16ggg
8A	8g	16cc#	16eee
.	.	16ee	16ccc#
4D	16f#	16dd	4ddd
.	16dd	16ff#	.
.	16cc#	16ee	.
.	16b	16dd	.
4r	16a	16cc#	4r
.	16g	16b	.
.	16f#	16a	.
.	16e	16g	.
=108	=108	=108	=108
8D	8d	8f#	8r
8r	8d	8f#	8aa
8GG	8r	8g	8r
8r	16G	16f#	8bb
.	16e	16g	.
4AA	8c#	8e	8r
.	8c#	8e	16gg
.	.	.	16ee
4r	8r	4a	8cc#
.	8a	.	8a
=109	=109	=109	=109
8D	8d	8f#	8r
8r	8d	8f#	8aa
8GG	8r	8g	8r
8r	16G	16f#	8bb
.	16e	16g	.
4AA	8c#	8e	8r
.	8c#	8e	16gg
.	.	.	16ee
4r	8r	4A	8cc#
.	8a	.	8a
=110	=110	=110	=110
8FF#	8d	8r	8r
8r	8d	8d	16aa
.	.	.	16ff#
8F#	8r	8r	8dd
8r	8d	8a	16cc#
.	.	.	16dd
8G	8r	8r	8b
4r	8d	8b	8b
.	8r	8r	4gg
8E	8a	8cc#	.
=111	=111	=111	=111
8D	16a	4dd	16ff#
.	16f#	.	16aa
8r	16a	.	16ff#
.	16f#	.	16dd
8AA	16g	8r	16ee
.	16e	.	16gg
8r	16c#	8aa	16ee
.	16e	.	16cc#
4D	4d	16aa	[2dd
.	.	16ddd	.
.	.	16aa	.
.	.	16ff#	.
4r	4r	16bb	.
.	.	16ddd	.
.	.	16bb	.
.	.	16gg	.
=112	=112	=112	=112
1r	2r	16aa	1dd_
.	.	16ddd	.
.	.	16aa	.
.	.	16ff#	.
.	.	16gg	.
.	.	16bb	.
.	.	16gg	.
.	.	16ee	.
.	16dd	16ff#	.
.	16ff#	16aa	.
.	16dd	16ff#	.
.	16a	16dd	.
.	16b	16gg	.
.	16dd	16bb	.
.	16b	16gg	.
.	16g	16ee	.
=113	=113	=113	=113
2r	16a	16ff#	1dd]
.	16dd	16aa	.
.	16a	16ff#	.
.	16f#	16dd	.
.	16g	16ee	.
.	16b	16gg	.
.	16g	16ee	.
.	16e	16cc#	.
16D	16f#	2dd	.
16F#	16a	.	.
16D	16f#	.	.
16AA	16d	.	.
16BB	16g	.	.
16D	16b	.	.
16BB	16g	.	.
16GG	16e	.	.
=114	=114	=114	=114
16FF#	8d	8ff#	8aa
16AA	.	.	.
16D	8r	8r	8r
16F#	.	.	.
16GG	8b	8ee	8gg
16BB	.	.	.
16E	8r	8r	8r
16G	.	.	.
8AA	8a	8dd	8ff#
4r	8r	8r	8r
.	8g	8cc#	8ee
8BB	8r	8r	8r
=115	=115	=115	=115
2..B	8r	4.r	2r
.	8d	.	.
.	2.dd	.	.
.	.	8f	.
.	.	2ff	8r
.	.	.	8g#
.	.	.	4gg#
8C#	.	.	.
=116	=116	=116	=116
2..c#	8r	4.r	2r
.	8e	.	.
.	[2ee	.	.
.	.	8g	.
.	.	4.gg	8r
.	.	.	8a
.	8ee]	.	[4aa
8C#	8E	8G	.
=117	=117	=117	=117
4.c#	4.e	4.g	8aa]
.	.	.	8b-
.	.	.	4.bb-
8C#	8E	8G	.
[2c#	[2e	[2g	.
.	.	.	8b
.	.	.	8bb
.	.	.	8b
=118	=118	=118	=118
8c#]	8e]	8g]	2..bb
8C#	8E	8G	.
8c#	8e	8g	.
8C#	8E	8G	.
[2c#	[2e	[2g	.
.	.	.	8aa
=119	=119	=119	=119
4c#]	4e]	4g]	8gg
.	.	.	8ff#
2.r	2.r	2.r	8ee
.	.	.	8dd
.	.	.	8cc#
.	.	.	8b
.	.	.	8a
.	.	.	8g
=120	=120	=120	=120
2D	4A	2r	8f#
.	.	.	8f#
.	2B	.	8g
.	.	.	16f#
.	.	.	16g
2C#	.	8r	8e
.	.	16ee	8e
.	.	16dd	.
.	[4A	16cc#	4a
.	.	16b	.
.	.	16a	.
.	.	16cc#	.
=121	=121	=121	=121
2BB	4A]	4dd	8d
.	.	.	8d
.	2G	4.r	8e
.	.	.	16d
.	.	.	16e
2AA	.	.	8c#
.	.	16cc#	8c#
.	.	16b	.
.	[4F#	16a	4f#
.	.	16g	.
.	.	16f#	.
.	.	16a	.
=122	=122	=122	=122
2GG	4F#]	4b	8B
.	.	.	8B
.	2E	4.r	8c#
.	.	.	16B
.	.	.	16c#
2FF#	.	.	8A
.	.	16a	16B
.	.	16g	16c#
.	4D	16f#	8d
.	.	16e	.
.	.	16d	16e
.	.	16f#	16f#
=123	=123	=123	=123
8EE	8A	8c#	8g
8r	8r	8r	8r
8DD	8A	8d	8f#
8r	8r	8r	8r
8FF#	8G	8B	8e
4r	8r	8r	8r
.	8E	8G	8c#
8D	8r	8r	8r
=124	=124	=124	=124
2..DD	8r	4.r	2r
.	8f#	.	.
.	[2F#	.	.
.	.	8a	.
.	.	4.A	8r
.	.	.	8dd
.	8F#]	.	8d
8FF#	8F#	8f#	8f#
=125	=125	=125	=125
8F#	8f#	8ff#	8ff#
8AA	8A	8a	8a
8A	8a	8aa	8aa
8D	8d	8dd	8dd
8d	8dd	8ddd	8ddd
4.r	4.r	4.r	4.r
==	==	==	==
*-	*-	*-	*-
!!!RWG1: This file contains only pitch and duration data.
!!!RWG2: Transposing instruments are not transposed.
!!!RWG3: Spines may have incompatible meters.
!!!RWG4: Durations of rests and tied notes may be interpreted.
!!!RWG: Key is interpreted using the Humdrum key tool.
!!!GTL: 6 Quartetti ("Apponyi")
!!!AFT: stage1
!!!END: 1997/04/15
!!!KEY: 2694823454
!!!EMD: Converted from MuseData to Humdrum Dec 16, 2000, by Andreas Kornstaedt using muse2kern.
!!!EMD: Manual editing by Craig Sapp, Nov 2001
